X:121
T:Cuckold Come Out o' the Amrey
Z:Jack Campin, http://www.campin.me.uk/
S:Northumbrian Minstrelsy
M:4/4
L:1/8
K:D
A/B/c/A/ Tc>d      e>deg      |GG      TB>c d/B/A/G/ B/c/d/B/|\
A/B/c/A/  c>d      e>deg      |dB/A/    gB TA2      Te2     :|
g>e```````cg       ec e/f/g/e/|d/c/B/A/ Gd  BG       B/c/d/B/|\
g/f/e/d/  c/d/e/f/ gc e/f/g/e/|dB/A/    gB TA2      Te2     :|

